assets/1. P-Z/Rainbow/Color/Rainbow-color.svg

<svg width="100%" height="100%" viewBox="0 0 32 32" fill="none" xmlns="http://www.w3.org/2000/svg">
<g filter="url(#filter0_iii_18_15376)">
<path d="M29.9667 17.9667C29.9667 19.0713 29.0622 19.9458 27.9795 20.1641C24.0509 20.9562 20.9562 24.0509 20.1641 27.9795C19.9458 29.0622 19.0713 29.9667 17.9667 29.9667L3.96669 29.9667C2.86212 29.9667 1.95925 29.07 2.03813 27.9683C2.51724 21.2765 5.38995 14.9434 10.1667 10.1667C14.9434 5.38995 21.2765 2.51724 27.9683 2.03813C29.07 1.95925 29.9667 2.86212 29.9667 3.96669V17.9667Z" fill="url(#paint0_linear_18_15376)"/>
</g>
<path d="M29.9667 17.9667C29.9667 19.0713 29.0622 19.9458 27.9794 20.1641C24.0509 20.9562 20.9563 24.0509 20.1641 27.9794C19.9458 29.0622 19.0713 29.9667 17.9667 29.9667H4.96667C4.96667 23.3367 7.60668 16.9767 12.2867 12.2867C16.9767 7.59667 23.3367 4.96667 29.9667 4.96667V17.9667Z" fill="url(#paint1_linear_18_15376)"/>
<path d="M29.9667 17.9667C29.9667 19.0713 29.0622 19.9458 27.9794 20.1641C24.0509 20.9562 20.9563 24.0509 20.1641 27.9794C19.9458 29.0622 19.0713 29.9667 17.9667 29.9667H4.96667C4.96667 23.3367 7.60668 16.9767 12.2867 12.2867C16.9767 7.59667 23.3367 4.96667 29.9667 4.96667V17.9667Z" fill="url(#paint2_linear_18_15376)"/>
<path d="M29.9667 17.9667C29.9667 19.0713 29.0622 19.9458 27.9794 20.1641C24.0509 20.9562 20.9563 24.0509 20.1641 27.9794C19.9458 29.0622 19.0713 29.9667 17.9667 29.9667H4.96667C4.96667 23.3367 7.60668 16.9767 12.2867 12.2867C16.9767 7.59667 23.3367 4.96667 29.9667 4.96667V17.9667Z" fill="url(#paint3_linear_18_15376)"/>
<path d="M29.9667 17.9667C29.9667 19.0713 29.0622 19.9458 27.9794 20.1641C24.0509 20.9562 20.9563 24.0509 20.1641 27.9794C19.9458 29.0622 19.0713 29.9667 17.9667 29.9667H7.96667C7.96667 24.1367 10.2867 18.5367 14.4067 14.4067C18.5267 10.2867 24.1267 7.96667 29.9667 7.96667V17.9667Z" fill="url(#paint4_linear_18_15376)"/>
<path d="M29.9667 17.9667C29.9667 19.0713 29.0622 19.9458 27.9794 20.1641C24.0509 20.9562 20.9563 24.0509 20.1641 27.9794C19.9458 29.0622 19.0713 29.9667 17.9667 29.9667H7.96667C7.96667 24.1367 10.2867 18.5367 14.4067 14.4067C18.5267 10.2867 24.1267 7.96667 29.9667 7.96667V17.9667Z" fill="url(#paint5_linear_18_15376)"/>
<path d="M29.9667 17.9667C29.9667 19.0713 29.0622 19.9458 27.9794 20.1641C24.0509 20.9562 20.9563 24.0509 20.1641 27.9794C19.9458 29.0622 19.0713 29.9667 17.9667 29.9667H7.96667C7.96667 24.1367 10.2867 18.5367 14.4067 14.4067C18.5267 10.2867 24.1267 7.96667 29.9667 7.96667V17.9667Z" fill="url(#paint6_linear_18_15376)"/>
<path d="M29.9667 17.9667C29.9667 19.0712 29.0622 19.9458 27.9794 20.1641C24.0509 20.9562 20.9562 24.0509 20.1641 27.9794C19.9458 29.0622 19.0712 29.9667 17.9667 29.9667L10.9667 29.9667C10.9667 24.9267 12.9667 20.0967 16.5267 16.5267C20.0867 12.9667 24.9267 10.9667 29.9667 10.9667V17.9667Z" fill="url(#paint7_linear_18_15376)"/>
<path d="M29.9667 17.9667C29.9667 19.0712 29.0622 19.9458 27.9794 20.1641C24.0509 20.9562 20.9562 24.0509 20.1641 27.9794C19.9458 29.0622 19.0712 29.9667 17.9667 29.9667L10.9667 29.9667C10.9667 24.9267 12.9667 20.0967 16.5267 16.5267C20.0867 12.9667 24.9267 10.9667 29.9667 10.9667V17.9667Z" fill="url(#paint8_linear_18_15376)"/>
<path d="M29.9667 17.9667C29.9667 19.0712 29.0622 19.9458 27.9794 20.1641C24.0509 20.9562 20.9562 24.0509 20.1641 27.9794C19.9458 29.0622 19.0712 29.9667 17.9667 29.9667L10.9667 29.9667C10.9667 24.9267 12.9667 20.0967 16.5267 16.5267C20.0867 12.9667 24.9267 10.9667 29.9667 10.9667V17.9667Z" fill="url(#paint9_linear_18_15376)"/>
<path d="M29.9667 17.9667C29.9667 19.0712 29.0622 19.9458 27.9794 20.1641C24.0509 20.9562 20.9562 24.0509 20.1641 27.9794C19.9458 29.0622 19.0712 29.9667 17.9667 29.9667L13.9667 29.9667C13.9667 25.7267 15.6567 21.6567 18.6567 18.6567C21.6567 15.6567 25.7267 13.9667 29.9667 13.9667V17.9667Z" fill="url(#paint10_linear_18_15376)"/>
<path d="M29.9667 17.9667C29.9667 19.0712 29.0622 19.9458 27.9794 20.1641C24.0509 20.9562 20.9562 24.0509 20.1641 27.9794C19.9458 29.0622 19.0712 29.9667 17.9667 29.9667L13.9667 29.9667C13.9667 25.7267 15.6567 21.6567 18.6567 18.6567C21.6567 15.6567 25.7267 13.9667 29.9667 13.9667V17.9667Z" fill="url(#paint11_linear_18_15376)"/>
<path d="M29.9667 17.9667C29.9667 19.0712 29.0622 19.9458 27.9794 20.1641C24.0509 20.9562 20.9562 24.0509 20.1641 27.9794C19.9458 29.0622 19.0712 29.9667 17.9667 29.9667L13.9667 29.9667C13.9667 25.7267 15.6567 21.6567 18.6567 18.6567C21.6567 15.6567 25.7267 13.9667 29.9667 13.9667V17.9667Z" fill="url(#paint12_linear_18_15376)"/>
<path d="M29.9667 18.7167C29.9667 19.407 29.4042 19.9585 28.7192 20.0437C24.1938 20.6069 20.6069 24.1938 20.0437 28.7192C19.9585 29.4042 19.407 29.9667 18.7167 29.9667L16.9667 29.9667C16.9667 26.5167 18.3367 23.2067 20.7767 20.7767C23.2167 18.3367 26.5267 16.9667 29.9667 16.9667V18.7167Z" fill="url(#paint13_linear_18_15376)"/>
<path d="M29.9667 18.7167C29.9667 19.407 29.4042 19.9585 28.7192 20.0437C24.1938 20.6069 20.6069 24.1938 20.0437 28.7192C19.9585 29.4042 19.407 29.9667 18.7167 29.9667L16.9667 29.9667C16.9667 26.5167 18.3367 23.2067 20.7767 20.7767C23.2167 18.3367 26.5267 16.9667 29.9667 16.9667V18.7167Z" fill="url(#paint14_linear_18_15376)"/>
<path d="M29.9667 18.7167C29.9667 19.407 29.4042 19.9585 28.7192 20.0437C24.1938 20.6069 20.6069 24.1938 20.0437 28.7192C19.9585 29.4042 19.407 29.9667 18.7167 29.9667L16.9667 29.9667C16.9667 26.5167 18.3367 23.2067 20.7767 20.7767C23.2167 18.3367 26.5267 16.9667 29.9667 16.9667V18.7167Z" fill="url(#paint15_linear_18_15376)"/>
<g filter="url(#filter1_f_18_15376)">
<path d="M21.9651 23.1959C21.3544 23.8357 19.8234 25.957 19.5443 28.7138" stroke="url(#paint16_linear_18_15376)" stroke-width="0.4" stroke-linecap="round"/>
</g>
<defs>
<filter id="filter0_iii_18_15376" x="1.73333" y="1.78333" width="28.4833" height="28.4333" filterUnits="userSpaceOnUse" color-interpolation-filters="sRGB">
<feFlood flood-opacity="0" result="BackgroundImageFix"/>
<feBlend mode="normal" in="SourceGraphic" in2="BackgroundImageFix" result="shape"/>
<feColorMatrix in="SourceAlpha" type="matrix" values="0 0 0 0 0 0 0 0 0 0 0 0 0 0 0 0 0 0 127 0" result="hardAlpha"/>
<feOffset dx="0.25" dy="0.25"/>
<feGaussianBlur stdDeviation="0.25"/>
<feComposite in2="hardAlpha" operator="arithmetic" k2="-1" k3="1"/>
<feColorMatrix type="matrix" values="0 0 0 0 0.760784 0 0 0 0 0.286275 0 0 0 0 0.372549 0 0 0 1 0"/>
<feBlend mode="normal" in2="shape" result="effect1_innerShadow_18_15376"/>
<feColorMatrix in="SourceAlpha" type="matrix" values="0 0 0 0 0 0 0 0 0 0 0 0 0 0 0 0 0 0 127 0" result="hardAlpha"/>
<feOffset dy="-0.25"/>
<feGaussianBlur stdDeviation="0.5"/>
<feComposite in2="hardAlpha" operator="arithmetic" k2="-1" k3="1"/>
<feColorMatrix type="matrix" values="0 0 0 0 0.941176 0 0 0 0 0.207843 0 0 0 0 0.423529 0 0 0 1 0"/>
<feBlend mode="normal" in2="effect1_innerShadow_18_15376" result="effect2_innerShadow_18_15376"/>
<feColorMatrix in="SourceAlpha" type="matrix" values="0 0 0 0 0 0 0 0 0 0 0 0 0 0 0 0 0 0 127 0" result="hardAlpha"/>
<feOffset dx="-0.6"/>
<feGaussianBlur stdDeviation="0.15"/>
<feComposite in2="hardAlpha" operator="arithmetic" k2="-1" k3="1"/>
<feColorMatrix type="matrix" values="0 0 0 0 1 0 0 0 0 0.368627 0 0 0 0 0.709804 0 0 0 1 0"/>
<feBlend mode="normal" in2="effect2_innerShadow_18_15376" result="effect3_innerShadow_18_15376"/>
</filter>
<filter id="filter1_f_18_15376" x="18.9442" y="22.5959" width="3.62086" height="6.71791" filterUnits="userSpaceOnUse" color-interpolation-filters="sRGB">
<feFlood flood-opacity="0" result="BackgroundImageFix"/>
<feBlend mode="normal" in="SourceGraphic" in2="BackgroundImageFix" result="shape"/>
<feGaussianBlur stdDeviation="0.2" result="effect1_foregroundBlur_18_15376"/>
</filter>
<linearGradient id="paint0_linear_18_15376" x1="3.03158" y1="25.7944" x2="21.604" y2="8.02941" gradientUnits="userSpaceOnUse">
<stop stop-color="#FF4B5F"/>
<stop offset="1" stop-color="#F63EA0"/>
</linearGradient>
<linearGradient id="paint1_linear_18_15376" x1="8.9207" y1="29.0261" x2="27.3602" y2="7.03816" gradientUnits="userSpaceOnUse">
<stop stop-color="#FF8E54"/>
<stop offset="1" stop-color="#FFC751"/>
</linearGradient>
<linearGradient id="paint2_linear_18_15376" x1="30.0472" y1="6.80999" x2="29.0657" y2="6.80999" gradientUnits="userSpaceOnUse">
<stop stop-color="#FFEF61"/>
<stop offset="1" stop-color="#FFEF61" stop-opacity="0"/>
</linearGradient>
<linearGradient id="paint3_linear_18_15376" x1="6.39859" y1="29.9667" x2="6.39859" y2="29.4364" gradientUnits="userSpaceOnUse">
<stop offset="0.325542" stop-color="#FF677B"/>
<stop offset="1" stop-color="#FF677B" stop-opacity="0"/>
</linearGradient>
<linearGradient id="paint4_linear_18_15376" x1="11.4462" y1="29.139" x2="27.6729" y2="9.78958" gradientUnits="userSpaceOnUse">
<stop stop-color="#FFD05E"/>
<stop offset="1" stop-color="#FFE38D"/>
</linearGradient>
<linearGradient id="paint5_linear_18_15376" x1="30.0375" y1="9.58879" x2="29.1672" y2="9.58879" gradientUnits="userSpaceOnUse">
<stop stop-color="#FFFF9F"/>
<stop offset="1" stop-color="#FFFF9F" stop-opacity="0"/>
</linearGradient>
<linearGradient id="paint6_linear_18_15376" x1="9.22676" y1="29.9667" x2="9.22676" y2="29.5" gradientUnits="userSpaceOnUse">
<stop offset="0.325542" stop-color="#FF9783"/>
<stop offset="1" stop-color="#FF9783" stop-opacity="0"/>
</linearGradient>
<linearGradient id="paint7_linear_18_15376" x1="13.9717" y1="29.2518" x2="27.9857" y2="12.541" gradientUnits="userSpaceOnUse">
<stop stop-color="#48CF92"/>
<stop offset="1" stop-color="#60E4AB"/>
</linearGradient>
<linearGradient id="paint8_linear_18_15376" x1="30.0279" y1="12.3676" x2="29.1334" y2="12.3676" gradientUnits="userSpaceOnUse">
<stop stop-color="#74FFB9"/>
<stop offset="1" stop-color="#74FFB9" stop-opacity="0"/>
</linearGradient>
<linearGradient id="paint9_linear_18_15376" x1="12.0549" y1="29.9667" x2="12.0549" y2="29.5636" gradientUnits="userSpaceOnUse">
<stop offset="0.325542" stop-color="#5E97B1"/>
<stop offset="1" stop-color="#5E97B1" stop-opacity="0"/>
</linearGradient>
<linearGradient id="paint10_linear_18_15376" x1="16.4973" y1="29.3647" x2="28.2985" y2="15.2924" gradientUnits="userSpaceOnUse">
<stop stop-color="#4D81F6"/>
<stop offset="1" stop-color="#46A0FF"/>
</linearGradient>
<linearGradient id="paint11_linear_18_15376" x1="30.0182" y1="15.1464" x2="29.265" y2="15.1464" gradientUnits="userSpaceOnUse">
<stop stop-color="#55C3FF"/>
<stop offset="1" stop-color="#55C3FF" stop-opacity="0"/>
</linearGradient>
<linearGradient id="paint12_linear_18_15376" x1="14.8831" y1="29.9667" x2="14.8831" y2="29.6273" gradientUnits="userSpaceOnUse">
<stop offset="0.325542" stop-color="#6160FF"/>
<stop offset="1" stop-color="#6160FF" stop-opacity="0"/>
</linearGradient>
<linearGradient id="paint13_linear_18_15376" x1="19.0228" y1="29.4776" x2="28.6113" y2="18.0438" gradientUnits="userSpaceOnUse">
<stop stop-color="#8569CA"/>
<stop offset="1" stop-color="#9970E2"/>
</linearGradient>
<linearGradient id="paint14_linear_18_15376" x1="30.0085" y1="17.9252" x2="29.3965" y2="17.9252" gradientUnits="userSpaceOnUse">
<stop stop-color="#B28AFA"/>
<stop offset="1" stop-color="#B28AFA" stop-opacity="0"/>
</linearGradient>
<linearGradient id="paint15_linear_18_15376" x1="17.7113" y1="29.9667" x2="17.7113" y2="29.6909" gradientUnits="userSpaceOnUse">
<stop offset="0.325542" stop-color="#894FE0"/>
<stop offset="1" stop-color="#894FE0" stop-opacity="0"/>
</linearGradient>
<linearGradient id="paint16_linear_18_15376" x1="19.8278" y1="28.5829" x2="22.096" y2="23.3486" gradientUnits="userSpaceOnUse">
<stop stop-color="#977DDD"/>
<stop offset="1" stop-color="#977DDD" stop-opacity="0"/>
</linearGradient>
</defs>
</svg>

<svg width="100%" height="100%" viewBox="0 0 32 32" xmlns="http://www.w3.org/2000/svg"><g filter="url(#a)"><path fill="url(#b)" d="M29.967 17.967c0 1.104-.905 1.979-1.987 2.197a10.01 10.01 0 0 0-7.816 7.816c-.218 1.082-1.093 1.987-2.197 1.987h-14c-1.105 0-2.008-.897-1.929-1.999a28.02 28.02 0 0 1 8.129-17.801 28.02 28.02 0 0 1 17.801-8.129c1.102-.079 1.999.824 1.999 1.929z"/></g><path fill="url(#c)" d="M29.967 17.967c0 1.104-.905 1.979-1.988 2.197a10.01 10.01 0 0 0-7.815 7.815c-.218 1.083-1.093 1.988-2.197 1.988h-13c0-6.63 2.64-12.99 7.32-17.68a25 25 0 0 1 17.68-7.32z"/><path fill="url(#d)" d="M29.967 17.967c0 1.104-.905 1.979-1.988 2.197a10.01 10.01 0 0 0-7.815 7.815c-.218 1.083-1.093 1.988-2.197 1.988h-13c0-6.63 2.64-12.99 7.32-17.68a25 25 0 0 1 17.68-7.32z"/><path fill="url(#e)" d="M29.967 17.967c0 1.104-.905 1.979-1.988 2.197a10.01 10.01 0 0 0-7.815 7.815c-.218 1.083-1.093 1.988-2.197 1.988h-13c0-6.63 2.64-12.99 7.32-17.68a25 25 0 0 1 17.68-7.32z"/><path fill="url(#f)" d="M29.967 17.967c0 1.104-.905 1.979-1.988 2.197a10.01 10.01 0 0 0-7.815 7.815c-.218 1.083-1.093 1.988-2.197 1.988h-10c0-5.83 2.32-11.43 6.44-15.56a22 22 0 0 1 15.56-6.44z"/><path fill="url(#g)" d="M29.967 17.967c0 1.104-.905 1.979-1.988 2.197a10.01 10.01 0 0 0-7.815 7.815c-.218 1.083-1.093 1.988-2.197 1.988h-10c0-5.83 2.32-11.43 6.44-15.56a22 22 0 0 1 15.56-6.44z"/><path fill="url(#h)" d="M29.967 17.967c0 1.104-.905 1.979-1.988 2.197a10.01 10.01 0 0 0-7.815 7.815c-.218 1.083-1.093 1.988-2.197 1.988h-10c0-5.83 2.32-11.43 6.44-15.56a22 22 0 0 1 15.56-6.44z"/><path fill="url(#i)" d="M29.967 17.967c0 1.104-.905 1.979-1.988 2.197a10.01 10.01 0 0 0-7.815 7.815c-.218 1.083-1.093 1.988-2.197 1.988h-7c0-5.04 2-9.87 5.56-13.44 3.56-3.56 8.4-5.56 13.44-5.56z"/><path fill="url(#j)" d="M29.967 17.967c0 1.104-.905 1.979-1.988 2.197a10.01 10.01 0 0 0-7.815 7.815c-.218 1.083-1.093 1.988-2.197 1.988h-7c0-5.04 2-9.87 5.56-13.44 3.56-3.56 8.4-5.56 13.44-5.56z"/><path fill="url(#k)" d="M29.967 17.967c0 1.104-.905 1.979-1.988 2.197a10.01 10.01 0 0 0-7.815 7.815c-.218 1.083-1.093 1.988-2.197 1.988h-7c0-5.04 2-9.87 5.56-13.44 3.56-3.56 8.4-5.56 13.44-5.56z"/><path fill="url(#l)" d="M29.967 17.967c0 1.104-.905 1.979-1.988 2.197a10.01 10.01 0 0 0-7.815 7.815c-.218 1.083-1.093 1.988-2.197 1.988h-4c0-4.24 1.69-8.31 4.69-11.31s7.07-4.69 11.31-4.69z"/><path fill="url(#m)" d="M29.967 17.967c0 1.104-.905 1.979-1.988 2.197a10.01 10.01 0 0 0-7.815 7.815c-.218 1.083-1.093 1.988-2.197 1.988h-4c0-4.24 1.69-8.31 4.69-11.31s7.07-4.69 11.31-4.69z"/><path fill="url(#n)" d="M29.967 17.967c0 1.104-.905 1.979-1.988 2.197a10.01 10.01 0 0 0-7.815 7.815c-.218 1.083-1.093 1.988-2.197 1.988h-4c0-4.24 1.69-8.31 4.69-11.31s7.07-4.69 11.31-4.69z"/><path fill="url(#o)" d="M29.967 18.717c0 .69-.563 1.242-1.248 1.327a10.005 10.005 0 0 0-8.675 8.675c-.085.685-.637 1.248-1.327 1.248h-1.75c0-3.45 1.37-6.76 3.81-9.19 2.44-2.44 5.75-3.81 9.19-3.81z"/><path fill="url(#p)" d="M29.967 18.717c0 .69-.563 1.242-1.248 1.327a10.005 10.005 0 0 0-8.675 8.675c-.085.685-.637 1.248-1.327 1.248h-1.75c0-3.45 1.37-6.76 3.81-9.19 2.44-2.44 5.75-3.81 9.19-3.81z"/><path fill="url(#q)" d="M29.967 18.717c0 .69-.563 1.242-1.248 1.327a10.005 10.005 0 0 0-8.675 8.675c-.085.685-.637 1.248-1.327 1.248h-1.75c0-3.45 1.37-6.76 3.81-9.19 2.44-2.44 5.75-3.81 9.19-3.81z"/><g filter="url(#r)"><path stroke="url(#s)" stroke-linecap="round" stroke-width=".4" d="M21.965 23.196c-.61.64-2.142 2.761-2.42 5.518"/></g><defs><linearGradient id="b" x1="3.032" x2="21.604" y1="25.794" y2="8.029" gradientUnits="userSpaceOnUse"><stop stop-color="#FF4B5F"/><stop offset="1" stop-color="#F63EA0"/></linearGradient><linearGradient id="c" x1="8.921" x2="27.36" y1="29.026" y2="7.038" gradientUnits="userSpaceOnUse"><stop stop-color="#FF8E54"/><stop offset="1" stop-color="#FFC751"/></linearGradient><linearGradient id="d" x1="30.047" x2="29.066" y1="6.81" y2="6.81" gradientUnits="userSpaceOnUse"><stop stop-color="#FFEF61"/><stop offset="1" stop-color="#FFEF61" stop-opacity="0"/></linearGradient><linearGradient id="e" x1="6.399" x2="6.399" y1="29.967" y2="29.436" gradientUnits="userSpaceOnUse"><stop offset=".326" stop-color="#FF677B"/><stop offset="1" stop-color="#FF677B" stop-opacity="0"/></linearGradient><linearGradient id="f" x1="11.446" x2="27.673" y1="29.139" y2="9.79" gradientUnits="userSpaceOnUse"><stop stop-color="#FFD05E"/><stop offset="1" stop-color="#FFE38D"/></linearGradient><linearGradient id="g" x1="30.038" x2="29.167" y1="9.589" y2="9.589" gradientUnits="userSpaceOnUse"><stop stop-color="#FFFF9F"/><stop offset="1" stop-color="#FFFF9F" stop-opacity="0"/></linearGradient><linearGradient id="h" x1="9.227" x2="9.227" y1="29.967" y2="29.5" gradientUnits="userSpaceOnUse"><stop offset=".326" stop-color="#FF9783"/><stop offset="1" stop-color="#FF9783" stop-opacity="0"/></linearGradient><linearGradient id="i" x1="13.972" x2="27.986" y1="29.252" y2="12.541" gradientUnits="userSpaceOnUse"><stop stop-color="#48CF92"/><stop offset="1" stop-color="#60E4AB"/></linearGradient><linearGradient id="j" x1="30.028" x2="29.133" y1="12.368" y2="12.368" gradientUnits="userSpaceOnUse"><stop stop-color="#74FFB9"/><stop offset="1" stop-color="#74FFB9" stop-opacity="0"/></linearGradient><linearGradient id="k" x1="12.055" x2="12.055" y1="29.967" y2="29.564" gradientUnits="userSpaceOnUse"><stop offset=".326" stop-color="#5E97B1"/><stop offset="1" stop-color="#5E97B1" stop-opacity="0"/></linearGradient><linearGradient id="l" x1="16.497" x2="28.299" y1="29.365" y2="15.292" gradientUnits="userSpaceOnUse"><stop stop-color="#4D81F6"/><stop offset="1" stop-color="#46A0FF"/></linearGradient><linearGradient id="m" x1="30.018" x2="29.265" y1="15.146" y2="15.146" gradientUnits="userSpaceOnUse"><stop stop-color="#55C3FF"/><stop offset="1" stop-color="#55C3FF" stop-opacity="0"/></linearGradient><linearGradient id="n" x1="14.883" x2="14.883" y1="29.967" y2="29.627" gradientUnits="userSpaceOnUse"><stop offset=".326" stop-color="#6160FF"/><stop offset="1" stop-color="#6160FF" stop-opacity="0"/></linearGradient><linearGradient id="o" x1="19.023" x2="28.611" y1="29.478" y2="18.044" gradientUnits="userSpaceOnUse"><stop stop-color="#8569CA"/><stop offset="1" stop-color="#9970E2"/></linearGradient><linearGradient id="p" x1="30.009" x2="29.396" y1="17.925" y2="17.925" gradientUnits="userSpaceOnUse"><stop stop-color="#B28AFA"/><stop offset="1" stop-color="#B28AFA" stop-opacity="0"/></linearGradient><linearGradient id="q" x1="17.711" x2="17.711" y1="29.967" y2="29.691" gradientUnits="userSpaceOnUse"><stop offset=".326" stop-color="#894FE0"/><stop offset="1" stop-color="#894FE0" stop-opacity="0"/></linearGradient><linearGradient id="s" x1="19.828" x2="22.096" y1="28.583" y2="23.349" gradientUnits="userSpaceOnUse"><stop stop-color="#977DDD"/><stop offset="1" stop-color="#977DDD" stop-opacity="0"/></linearGradient><filter id="a" width="28.483" height="28.433" x="1.733" y="1.783" color-interpolation-filters="sRGB" filterUnits="userSpaceOnUse"><feFlood flood-opacity="0" result="BackgroundImageFix"/><feBlend in="SourceGraphic" in2="BackgroundImageFix" result="shape"/><feColorMatrix in="SourceAlpha" result="hardAlpha" values="0 0 0 0 0 0 0 0 0 0 0 0 0 0 0 0 0 0 127 0"/><feOffset dx=".25" dy=".25"/><feGaussianBlur stdDeviation=".25"/><feComposite in2="hardAlpha" k2="-1" k3="1" operator="arithmetic"/><feColorMatrix values="0 0 0 0 0.760784 0 0 0 0 0.286275 0 0 0 0 0.372549 0 0 0 1 0"/><feBlend in2="shape" result="effect1_innerShadow_18_15376"/><feColorMatrix in="SourceAlpha" result="hardAlpha" values="0 0 0 0 0 0 0 0 0 0 0 0 0 0 0 0 0 0 127 0"/><feOffset dy="-.25"/><feGaussianBlur stdDeviation=".5"/><feComposite in2="hardAlpha" k2="-1" k3="1" operator="arithmetic"/><feColorMatrix values="0 0 0 0 0.941176 0 0 0 0 0.207843 0 0 0 0 0.423529 0 0 0 1 0"/><feBlend in2="effect1_innerShadow_18_15376" result="effect2_innerShadow_18_15376"/><feColorMatrix in="SourceAlpha" result="hardAlpha" values="0 0 0 0 0 0 0 0 0 0 0 0 0 0 0 0 0 0 127 0"/><feOffset dx="-.6"/><feGaussianBlur stdDeviation=".15"/><feComposite in2="hardAlpha" k2="-1" k3="1" operator="arithmetic"/><feColorMatrix values="0 0 0 0 1 0 0 0 0 0.368627 0 0 0 0 0.709804 0 0 0 1 0"/><feBlend in2="effect2_innerShadow_18_15376" result="effect3_innerShadow_18_15376"/></filter><filter id="r" width="3.621" height="6.718" x="18.944" y="22.596" color-interpolation-filters="sRGB" filterUnits="userSpaceOnUse"><feFlood flood-opacity="0" result="BackgroundImageFix"/><feBlend in="SourceGraphic" in2="BackgroundImageFix" result="shape"/><feGaussianBlur result="effect1_foregroundBlur_18_15376" stdDeviation=".2"/></filter></defs></svg>
